X: 330
T: Mississippi Sawyer
B: canberra pickers and fiddlers
B: good tune book
B: tunes
M:4/4
Q: 1/4=120
K:D
V:1 
fg|:"D" a2 af a2 af|af a2 b2 a2|"G" g2 ef g2 ef|gf g2 a2 g2|
 "D" f2 fg fe dc|de fg a2 ef|"A" gf ed cA Bc|1 "D" d2 f2 d2 fg:|2 d2 de d2 fe||
 |:"D" d2 fe d2 fe|de fg a4|"A" e2 c2 A2 c2|AB cd ef ec|
 "D" d2 fe d2 fe|de fg a2 ef|"A" gf ed cA Bc|1 "D" d2 f2 d2 fe:|2 "D" d2 f2 d2||
% abcbook-tune_id 6345472aa1fda3ff292c592a
% abcbook-tune_composer_id 
% abcbook-link-0 https://www.youtube.com/watch?v=MI8UzzLJdPk
% abcbook-link-start-at-0 35
% abcbook-link-end-at-0 114
% abcbook-boost 0
% abcbook-difficulty 0
% abcbook-tags canberra pickers and fiddlers,good tune book,old time tunes,ralph cullen,© free
% abcbook-tablature 
% abcbook-transpose 
% abcbook-tuning ADAE
% abcbook-lastupdated 1729759954185
% abcbook-src-url https://tunebook.net/scrape/tunes.abc
% abcbook-soundfonts 
% abcbook-repeats 3


